X:8984
T:La Media Vuelta
R:Xota
C:Tradicional
S:Música Tradicional Asturiana, (C) Tello & Tito. Asturies, 2001.
S:http://pagina.de/MusTradAst <telloytito@asturies.org>
N:Baille fonderamente vaqueiru.
N:Báillase en fileres a ritmu ternariu, cantáu y acompañáu de pandeiru redondu y payel.la.
A:Asturies
Z:Danzas y Bailes I
M:6/8
L:1/8
Q:3/8=100
K:D
|: B2 B|BAG FEA|AFB A3-|A3 z3|z3 B2 B|BAG FEA|AGG F3-|F3 :|


